dist/icons/svgs/upload-solid.svg

<svg xmlns="http://www.w3.org/2000/svg" width="24" height="24" fill="currentcolor" class="icon-upload-solid" viewBox="0 0 24 24">
  <path d="M13.25 6.29688V15.75C13.25 16.4531 12.6641 17 12 17C11.2969 17 10.75 16.4531 10.75 15.75V6.29688L7.85938 9.14844C7.39062 9.65625 6.57031 9.65625 6.10156 9.14844C5.59375 8.67969 5.59375 7.85938 6.10156 7.39062L11.1016 2.39062C11.5703 1.88281 12.3906 1.88281 12.8594 2.39062L17.8594 7.39062C18.3672 7.85938 18.3672 8.67969 17.8594 9.14844C17.3906 9.65625 16.5703 9.65625 16.1016 9.14844L13.25 6.29688ZM4.5 15.75H9.5C9.5 17.1562 10.5938 18.25 12 18.25C13.3672 18.25 14.5 17.1562 14.5 15.75H19.5C20.8672 15.75 22 16.8828 22 18.25V19.5C22 20.9062 20.8672 22 19.5 22H4.5C3.09375 22 2 20.9062 2 19.5V18.25C2 16.8828 3.09375 15.75 4.5 15.75ZM18.875 19.8125C19.3828 19.8125 19.8125 19.4219 19.8125 18.875C19.8125 18.3672 19.3828 17.9375 18.875 17.9375C18.3281 17.9375 17.9375 18.3672 17.9375 18.875C17.9375 19.4219 18.3281 19.8125 18.875 19.8125Z"/>
</svg>

<svg xmlns="http://www.w3.org/2000/svg" width="24" height="24" fill="currentColor" class="icon-upload-solid" viewBox="0 0 24 24">
  <path d="M13.25 6.297v9.453c0 .703-.586 1.25-1.25 1.25-.703 0-1.25-.547-1.25-1.25V6.297L7.86 9.148a1.205 1.205 0 0 1-1.758 0 1.205 1.205 0 0 1 0-1.757l5-5a1.205 1.205 0 0 1 1.757 0l5 5a1.203 1.203 0 0 1 0 1.757 1.205 1.205 0 0 1-1.757 0zM4.5 15.75h5c0 1.406 1.094 2.5 2.5 2.5 1.367 0 2.5-1.094 2.5-2.5h5c1.367 0 2.5 1.133 2.5 2.5v1.25c0 1.406-1.133 2.5-2.5 2.5h-15A2.47 2.47 0 0 1 2 19.5v-1.25c0-1.367 1.094-2.5 2.5-2.5m14.375 4.063a.926.926 0 0 0 .938-.938.95.95 0 0 0-.938-.937.925.925 0 0 0-.937.937c0 .547.39.938.937.938"/>
</svg>
